icons/svg/24x24/bookmark add alt1/filled.svg

<svg xmlns="http://www.w3.org/2000/svg" width="24" height="24" viewBox="0 0 24 24">
  <path fill-rule="evenodd" d="M14.5996,15 L11.9996,13.634 L9.4006,15 L9.8976,12.105 L7.7936,10.056 L10.7006,9.634 L11.9996,7 L13.2996,9.634 L16.2056,10.056 L14.1026,12.105 L14.5996,15 Z M14.9996,2 L8.9996,2 C7.2936,2 5.9996,3.212 5.9996,5 L5.9996,22 L11.9996,18 L17.9996,22 L17.9996,5 C17.9996,3.212 16.7056,2 14.9996,2 L14.9996,2 Z"/>
</svg>

<svg width="24" height="24" fill="none" xmlns="http://www.w3.org/2000/svg">
  <path fill-rule="evenodd" clip-rule="evenodd" d="M14.6 15L12 13.634 9.4 15l.498-2.895-2.104-2.049 2.907-.422L12 7l1.3 2.634 2.906.422-2.103 2.049L14.6 15zM15 2H9C7.294 2 6 3.212 6 5v17l6-4 6 4V5c0-1.788-1.294-3-3-3z" fill="#000"/>
</svg>
